!!!COM: Haydn, Franz Joseph
!!!OTL: String Quartet in A Major
!!!OPS: Opus 20
!!!ONM: No. 6
!!!OMD: Menuetto
!!!OMV: 3
!!!SCT: H III:36
!!!SCA: Thematisch-bibliographisches Werkevererzeichnis (A. van Hoboken)
!!!YOR: Richault Edition, volume 4
!!!ENC: Frances Bennion
!!!CDT: 1732/3/31/-1809/5/31/
!!!CNT: Oesterreich
!!!YEC: Copyright (c) 1994, 2000 Center for Computer Assisted Research in the Humanities
!!!YEM: Rights to all derivative editions reserved.
!!!YEM: Refer to licensing agreement for further details.
!!!YEN: United States of America
**kern	**kern	**kern	**kern
*k[f#c#g#]	*k[f#c#g#]	*k[f#c#g#]	*k[f#c#g#]
*A:	*A:	*A:	*A:
*clefF4	*clefC3	*clefF	*clefF
*M3/4	*M3/4	*M3/4	*M3/4
4A	4e	4c#	2.a
4A	4e	4c#	.
4A	4e	4c#	.
=2	=2	=2	=2
4B	2e	4d	8g#
.	.	.	8a
4A	.	4c#	8b
.	.	.	8a
4r	4r	4r	8cc#
.	.	.	8c#
=3	=3	=3	=3
4E	4E	2c#	2e
4E	4E	.	.
4E	4E	4B	4d
=4	=4	=4	=4
4AA	4A	4A	4c#
4A	2r	4r	4r
4r	.	4c#	8ee
.	.	.	16dd
.	.	.	16ee
=5	=5	=5	=5
2.r	2.r	4d	4ff#
.	.	4f#	4dd
.	.	4e	4cc#
=6	=6	=6	=6
2.r	2.r	4d	4b
.	.	4e	8a
.	.	.	8g#
.	.	4c#	4a
=7	=7	=7	=7
4E	4e 4B	4B	8g#
.	.	.	8ee
4E	4e 4B	4gg#	4bb
4E	4B 4e	4gg#	4bb
=8	=8	=8	=8
4E	4e 4B	4gg#	4bb
2r	2r	2r	2r
=9	=9	=9	=9
4r	4r	4r	8bb
.	.	.	8ee
4E	4e	4B	4g#
4E	4e	4B	4g#
=10	=10	=10	=10
4r	4r	4r	8ccc#
.	.	.	8ee
4AA	4e	4c#	4a
4AA	4e	4c#	4a
=11	=11	=11	=11
4r	4r	4r	8g#
.	.	.	8ee
4E	4e	8gg#	8bb
.	.	8aa	8ccc#
4E	4e	8bb	8ddd
.	.	8aa	8ccc#
=12	=12	=12	=12
8E	8e	4gg#	4bb
8F#	8a	.	.
8E	8g#	2r	2r
8D	8f#	.	.
8C#	8e	.	.
8BB	8d	.	.
=13	=13	=13	=13
4AA	4c#	4r	2eee
2r	4c#	4a	.
.	4c#	4a	8ccc#
.	.	.	8aa
=14	=14	=14	=14
2.r	4d	4a	8ff#
.	.	.	8dd
.	2r	2r	4ddd
.	.	.	4r
=15	=15	=15	=15
2.r	4r	4r	4ee
.	4e	4aa	4ccc#
.	4e	4gg#	4bb
=16	=16	=16	=16
4AA	4a	4aa	4aa
4C#	2r	2r	2r
4E	.	.	.
=17	=17	=17	=17
4A	4e	4c#	2.a
4A	4e	4c#	.
4A	4e	4c#	.
=18	=18	=18	=18
4B	2e	4d	4g#
4A	.	4c#	8a
.	.	.	8b
4r	4r	4r	8cc#
.	.	.	8c#
=19	=19	=19	=19
4E	4E	2c#	2e
4E	4E	.	.
4E	4E	4B	4d
=20	=20	=20	=20
4AA	4A	4A	4c#
2r	2r	2r	2r
=21	=21	=21	=21
2.r	2.r	2.r	4A
.	.	.	4c#
.	.	.	4d
=22	=22	=22	=22
2.r	2.r	2.r	8e
.	.	.	8c#
.	.	.	8d
.	.	.	8e
.	.	.	8f#
.	.	.	8g#
=23	=23	=23	=23
4AA	4F#	2.r	4a
4AA	4E	.	4g#
4AA	4D	.	4f#
=24	=24	=24	=24
2AA	2C#	2.r	2e
4CC#	4A	.	4e#
=25	=25	=25	=25
2DD	[2.A	2.r	4f#
.	.	.	4a
4EE	.	.	4c#
=26	=26	=26	=26
2.FF#	2A]	2.r	4d
.	.	.	4f#
.	4D#	.	4A
=27	=27	=27	=27
4EE	8E	2.r	8G#
.	8G#	.	8B
4EE	4B	.	4d
4EE	4A	.	4c#
=28	=28	=28	=28
2EE	2G#	2.r	2B
4r	4r	.	4r
=29	=29	=29	=29
4r	2G#	2.r	2B
4EE	.	.	.
4EE	4A	.	4c#
=30	=30	=30	=30
4EE	4B	2.r	4d
2r	4D	.	4G#
.	4C#	.	4A
=31	=31	=31	=31
4r	4G#	2.r	4B
4EE	4G#	.	4B
4EE	4A	.	4c#
=32	=32	=32	=32
4EE	4B	2.r	4d
2r	2r	.	2r
=33	=33	=33	=33
2.r	2.r	2.r	4A
.	.	.	4c#
.	.	.	4d
=34	=34	=34	=34
2.r	2.r	2.r	8e
.	.	.	8c#
.	.	.	8d
.	.	.	8e
.	.	.	8f#
.	.	.	8g#
=35	=35	=35	=35
4AA	4F#	2.r	4a
4AA	4E	.	4g#
4AA	4D	.	4f#
=36	=36	=36	=36
4AA	4C#	2.r	4e
2r	8D	.	8f#
.	8E	.	8g#
.	8F#	.	8a
.	8G#	.	8b
=37	=37	=37	=37
2.r	4A	2.r	4cc#
.	4G#	.	4b
.	4F#	.	4a
=38	=38	=38	=38
2.EE	8E	2.r	8g#
.	8F#	.	8a
.	8E	.	8g#
.	8F#	.	8a
.	8G#	.	8b
.	8A	.	8cc#
=39	=39	=39	=39
8EE	4B	2.r	4dd
8FF#	.	.	.
8EE	4B	.	4dd
8FF#	.	.	.
8GG#	4B	.	4dd
8AA	.	.	.
=40	=40	=40	=40
4GG#	2B	2.r	2dd
4EE	.	.	.
4AA	4A	.	4cc#
=41	=41	=41	=41
4DD	4d	2.r	4b
4EE	4c#	.	4a
4EE	4B	.	4g#
=42	=42	=42	=42
2AA	2A	2.r	2.a
4r	4r	.	.
==	==	==	==
*-	*-	*-	*-
!!!RWG1: This file contains only pitch and duration data.
!!!RWG2: Transposing instruments are not transposed.
!!!RWG3: Spines may have incompatible meters.
!!!RWG4: Durations of rests and tied notes may be interpreted.
!!!RWG: Key is interpreted using the Humdrum key tool.
!!!GTL: 6 Divertimentos ("Sun")
!!!AFT: stage1
!!!END: 1997/04/15
!!!KEY: 3527259761
!!!EMD: Converted from MuseData to Humdrum Dec 16, 2000, by Andreas Kornstaedt using muse2kern.
!!!EMD: Manual editing by Craig Sapp, Nov 2001
